X:1
T: Here's to the Maiden
C:
R:Jig
Q:180
K:G
M:6/8
L:1/16
|:G2|G2A2G2 g2f2g2|e2d2e2 d4B2|G2A2G2 g2f2g2|e6d4B2|
G2A2G2 g2f2g2|e2d2e2 d4B2|c2e2c2 B2d2B2|A6G4:|
|:c2|B2c2d2 d4d2|d2c2B2 A4c2|B2c2d2 d2e2d2|c2B2A2 G4c2|
B2c2d2 d4d2|d2c2B2 A4c2|B2c2d2 d2e2d2|c2B2A2G4:|
